assets/icon-images/msme-industry.svg

<svg id="Capa_1" enable-background="new 0 0 511.999 511.999" height="512" viewBox="0 0 511.999 511.999" width="512" xmlns="http://www.w3.org/2000/svg"><g><path d="m296.693 134.112h69.949v57.605h-69.949z" fill="#665e66" transform="matrix(.707 .707 -.707 .707 212.341 -186.808)"/><path d="m511.184 283.794-19.872 19.862-51.808-51.808c6.809-14.536 4.213-32.399-7.798-44.421-14.165-14.155-36.448-15.236-51.849-3.245-1.998 1.556-3.873 3.327-5.604 5.316-1.751 2.009-3.255 4.162-4.512 6.418-7.922 14.083-6.48 32.193 4.368 44.802 11.95 13.897 31.08 17.245 46.482 10.024l51.818 51.818-19.862 19.872c-19.007 3.884-42.052-.556-60.791-6.202-20.583-6.181-39.27-17.472-54.466-32.667-18.924-18.924-28.505-43.896-28.505-68.795 0-24.086 8.962-48.12 27.125-66.56 37.241-37.807 98.083-37.993 135.551-.525l.474.474c15.968 15.968 27.65 35.778 33.574 57.577 4.665 17.182 8.137 38.084 5.675 58.06z" fill="#c3bec6"/><path d="m467.053 327.923-14.508 14.508c-19.003 3.887-42.049-.557-60.795-6.197-20.581-6.187-39.265-17.477-54.464-32.676-18.921-18.921-28.5-43.884-28.5-68.786 0-24.087 8.971-48.122 27.129-66.569 2.619-2.65 5.341-5.125 8.177-7.403-13.91 17.302-20.798 38.368-20.798 59.464 0 24.901 9.579 49.865 28.5 68.786 15.199 15.199 33.882 26.489 54.464 32.676 18.756 5.63 41.791 10.084 60.795 6.197z" fill="#b4acb7"/><path d="m213.157 115.839 59.191 59.191c5.402 5.402 14.162 5.402 19.564 0l51.872-51.872c5.402-5.402 5.402-14.162 0-19.564l-59.191-59.191z" fill="#e27d47"/><path d="m213.157 115.839 59.191 59.191c5.402 5.402 14.162 5.402 19.564 0l13.909-13.909-68.973-68.973z" fill="#dd6938"/><path d="m379.857 204.182c-1.998 1.556-3.873 3.327-5.604 5.316-1.751 2.009-3.255 4.162-4.512 6.418l-20.81-20.81c-3.018-3.018-3.018-7.901 0-10.92 3.018-3.018 7.912-3.018 10.93 0z" fill="#b4acb7"/><path d="m236.911 454.359h40.118l20.987 12.933 41.447-12.933h62.434l22.187 12.933 40.247-12.933c15.86 0 28.717 12.857 28.717 28.717 0 15.86-12.857 28.717-28.717 28.717h-40.121l-15.884-12.299-46.55 12.299h-62.434l-19.825-9.558-42.606 9.558z" fill="#665e66"/><g fill="#e27d47"><path d="m277.029 454.359h62.434l-40.121 57.433h-62.434z"/><path d="m464.331 454.359-40.121 57.433h-62.434l40.121-57.433z"/><path d="m0 216.088v185.208l175.681 77.75v-262.958c0-48.513-39.327-87.84-87.84-87.84-48.514 0-87.841 39.327-87.841 87.84z"/></g><path d="m101.73 129.341c-18.694 2.97-35.429 11.827-48.236 24.633-15.9 15.9-25.727 37.863-25.727 62.114v197.5l-27.767-12.291v-185.209c0-24.252 9.837-46.215 25.726-62.114 15.9-15.9 37.852-25.726 62.115-25.726 4.722 0 9.362.371 13.889 1.093z" fill="#dd6938"/><path d="m43.941 249.837c-32.141-32.141-27.509-85.501 9.689-111.622l151.788-106.59 56.735 56.735-106.59 151.788c-26.122 37.198-79.481 41.83-111.622 9.689z" fill="#665e66"/><path d="m53.834 258.139c-3.471-2.421-6.773-5.184-9.887-8.297-32.146-32.146-27.509-85.503 9.682-111.627l151.794-106.589 18.184 18.184-151.786 106.596c-33.597 23.594-40.633 69.404-17.987 101.733z" fill="#544f57"/><circle cx="95.611" cy="198.166" fill="#e27d47" r="36.92"/><path d="m90.21 224.273c4.547 4.547 9.992 7.661 15.755 9.332-12.518 3.65-26.582.536-36.46-9.332-14.415-14.425-14.415-37.801 0-52.216 9.878-9.868 23.942-12.982 36.46-9.332-5.764 1.67-11.208 4.784-15.755 9.332-14.415 14.415-14.415 37.79 0 52.216z" fill="#dd6938"/><path d="m95.611 242.792c-11.433 0-22.866-4.352-31.57-13.056-17.406-17.408-17.406-45.732 0-63.139 17.409-17.408 45.733-17.406 63.141 0 8.433 8.433 13.076 19.644 13.076 31.57s-4.644 23.137-13.076 31.57c-8.705 8.703-20.138 13.055-31.571 13.055zm0-73.806c-7.476 0-14.952 2.846-20.643 8.537-11.382 11.382-11.382 29.903 0 41.286 11.381 11.383 29.904 11.382 41.286 0 5.514-5.514 8.551-12.845 8.551-20.643s-3.037-15.129-8.551-20.643c-5.691-5.691-13.167-8.537-20.643-8.537z" fill="#544f57"/><circle cx="231.703" cy="62.95" fill="#c3bec6" r="62.744"/><path d="m201.501 107.317c10.446 10.446 23.663 16.442 37.292 17.977-18.327 2.081-37.395-3.915-51.457-17.977-24.498-24.498-24.498-64.232 0-88.729 14.062-14.062 33.13-20.058 51.457-17.977-13.629 1.535-26.846 7.52-37.292 17.977-24.508 24.497-24.508 64.231 0 88.729z" fill="#b4acb7"/><circle cx="231.703" cy="62.95" fill="#e27d47" r="20.578"/><path d="m231.703 91.241c-7.248 0-14.497-2.759-20.015-8.277-11.034-11.036-11.034-28.992 0-40.027 11.036-11.035 28.993-11.037 40.029 0 5.345 5.346 8.29 12.453 8.29 20.014s-2.945 14.668-8.291 20.014h.001c-5.518 5.517-12.766 8.276-20.014 8.276zm-.001-41.136c-3.291 0-6.581 1.253-9.086 3.758-5.01 5.011-5.01 13.164 0 18.175 5.011 5.011 13.165 5.009 18.174 0h.001c2.427-2.427 3.764-5.654 3.764-9.087s-1.337-6.66-3.764-9.087c-2.506-2.507-5.797-3.759-9.089-3.759z" fill="#b4acb7"/><path d="m185.049 349.435h-133.188c-28.642 0-51.861 23.219-51.861 51.862v110.496h236.911v-110.496c0-28.643-23.22-51.862-51.862-51.862z" fill="#f9f6f9"/><path d="m77.921 349.432c-28.644 0-51.865 23.221-51.865 51.865v110.494h-26.056v-110.494c0-28.644 23.221-51.865 51.865-51.865z" fill="#e2dfe2"/><g><path d="m58.086 435.87c-4.803.176-9.605.176-14.408 0-8.374-.307-15.147-7.08-15.454-15.454-.176-4.803-.176-9.606 0-14.408.307-8.374 7.08-15.147 15.454-15.454 4.703-.173 9.406-.176 14.109-.011 8.603.302 15.461 7.161 15.764 15.764.165 4.703.162 9.406-.011 14.109-.307 8.375-7.08 15.147-15.454 15.454z" fill="#da4a54"/><path d="m126.869 435.87c-4.803.176-9.605.176-14.408 0-8.374-.307-15.147-7.08-15.454-15.454-.176-4.803-.176-9.606 0-14.408.307-8.374 7.08-15.147 15.454-15.454 4.703-.173 9.406-.176 14.109-.011 8.603.302 15.461 7.161 15.764 15.764.165 4.703.162 9.406-.011 14.109-.308 8.375-7.08 15.147-15.454 15.454z" fill="#ffef4a"/><path d="m193.233 435.87c-4.803.176-9.605.176-14.408 0-8.374-.307-15.147-7.08-15.454-15.454-.176-4.803-.176-9.606 0-14.408.307-8.374 7.08-15.147 15.454-15.454 4.703-.173 9.406-.176 14.109-.011 8.603.302 15.461 7.161 15.764 15.764.165 4.703.162 9.406-.011 14.109-.308 8.375-7.08 15.147-15.454 15.454z" fill="#78d0b1"/></g><g><path d="m57.228 435.873c.144 0 .289.01.433.01-4.65.165-9.321.165-13.982-.01-8.373-.309-15.147-7.084-15.456-15.456-.175-4.805-.175-9.61 0-14.415.309-8.372 7.084-15.147 15.456-15.446 4.671-.175 9.332-.175 14.002-.01-.155 0-.299 0-.454.01-8.383.299-15.147 7.074-15.456 15.446-.175 4.805-.175 9.61 0 14.415.31 8.372 7.074 15.147 15.457 15.456z" fill="#d82e3d"/><path d="m126.003 435.873c.145 0 .289.01.433.01-4.661.165-9.321.155-13.972-.01-8.373-.309-15.147-7.084-15.456-15.456-.175-4.805-.175-9.61 0-14.415.309-8.372 7.084-15.147 15.456-15.446 4.661-.175 9.332-.175 13.992-.01-.155 0-.299 0-.454.01-8.373.299-15.147 7.074-15.446 15.446-.186 4.805-.186 9.61 0 14.415.3 8.372 7.074 15.147 15.447 15.456z" fill="#ffd321"/><path d="m192.366 435.873c.144 0 .289.01.433.01-4.661.165-9.311.155-13.972-.01-8.373-.309-15.147-7.084-15.456-15.456-.175-4.805-.175-9.61 0-14.415.309-8.372 7.084-15.147 15.456-15.446 4.661-.175 9.332-.175 13.992-.01-.155 0-.299 0-.454.01-8.373.299-15.147 7.074-15.446 15.446-.175 4.805-.175 9.61 0 14.415.3 8.372 7.074 15.147 15.447 15.456z" fill="#66b49d"/></g></g></svg>

<svg width="512" height="512" viewBox="0 0 512 512" fill="none" xmlns="http://www.w3.org/2000/svg">
<g id="msme-industry 1">
<g id="Group">
<g id="moving-part">
<path id="Vector" d="M327.286 117.771L376.74 167.225L336.013 207.952L286.559 158.498L327.286 117.771Z" fill="#665E66"/>
<path id="Vector_2" d="M511.184 283.794L491.312 303.656L439.504 251.848C446.313 237.312 443.717 219.449 431.706 207.427C417.541 193.272 395.258 192.191 379.857 204.182C377.859 205.738 375.984 207.509 374.253 209.498C372.502 211.507 370.998 213.66 369.741 215.916C361.819 229.999 363.261 248.109 374.109 260.718C386.059 274.615 405.189 277.963 420.591 270.742L472.409 322.56L452.547 342.432C433.54 346.316 410.495 341.876 391.756 336.23C371.173 330.049 352.486 318.758 337.29 303.563C318.366 284.639 308.785 259.667 308.785 234.768C308.785 210.682 317.747 186.648 335.91 168.208C373.151 130.401 433.993 130.215 471.461 167.683L471.935 168.157C487.903 184.125 499.585 203.935 505.509 225.734C510.174 242.916 513.646 263.818 511.184 283.794V283.794Z" fill="#C3BEC6"/>
<path id="Vector_3" d="M213.157 115.839L272.348 175.03C277.75 180.432 286.51 180.432 291.912 175.03L343.784 123.158C349.186 117.756 349.186 108.996 343.784 103.594L284.593 44.403L213.157 115.839Z" fill="#E27D47"/>
</g>
<path id="Vector_4" d="M236.911 454.359H277.029L298.016 467.292L339.463 454.359H401.897L424.084 467.292L464.331 454.359C480.191 454.359 493.048 467.216 493.048 483.076C493.048 498.936 480.191 511.793 464.331 511.793H424.21L408.326 499.494L361.776 511.793H299.342L279.517 502.235L236.911 511.793V454.359Z" fill="#665E66"/>
<g id="Group_2">
<path id="Vector_5" d="M277.029 454.359H339.463L299.342 511.792H236.908L277.029 454.359Z" fill="#E27D47"/>
<path id="Vector_6" d="M464.331 454.359L424.21 511.792H361.776L401.897 454.359H464.331Z" fill="#E27D47"/>
<path id="Vector_7" d="M0 216.088V401.296L175.681 479.046V216.088C175.681 167.575 136.354 128.248 87.841 128.248C39.327 128.248 0 167.575 0 216.088H0Z" fill="#E27D47"/>
</g>
<path id="Vector_8" d="M101.73 129.341C83.036 132.311 66.301 141.168 53.494 153.974C37.594 169.874 27.767 191.837 27.767 216.088V413.588L0 401.297V216.088C0 191.836 9.837 169.873 25.726 153.974C41.626 138.074 63.578 128.248 87.841 128.248C92.563 128.248 97.203 128.619 101.73 129.341Z" fill="#DD6938"/>
<path id="Vector_9" d="M43.941 249.837C11.8 217.696 16.432 164.336 53.63 138.215L205.418 31.625L262.153 88.36L155.563 240.148C129.441 277.346 76.082 281.978 43.941 249.837V249.837Z" fill="#665E66"/>
<path id="Vector_10" d="M53.834 258.139C50.363 255.718 47.061 252.955 43.947 249.842C11.801 217.696 16.438 164.339 53.629 138.215L205.423 31.626L223.607 49.81L71.821 156.406C38.224 180 31.188 225.81 53.834 258.139Z" fill="#544F57"/>
<path id="Vector_11" d="M95.611 235.086C116.001 235.086 132.531 218.556 132.531 198.166C132.531 177.776 116.001 161.246 95.611 161.246C75.2206 161.246 58.691 177.776 58.691 198.166C58.691 218.556 75.2206 235.086 95.611 235.086Z" fill="#E27D47"/>
<path id="Vector_12" d="M90.21 224.273C94.757 228.82 100.202 231.934 105.965 233.605C93.447 237.255 79.383 234.141 69.505 224.273C55.09 209.848 55.09 186.472 69.505 172.057C79.383 162.189 93.447 159.075 105.965 162.725C100.201 164.395 94.757 167.509 90.21 172.057C75.795 186.472 75.795 209.847 90.21 224.273V224.273Z" fill="#DD6938"/>
<path id="Vector_13" d="M95.611 242.792C84.178 242.792 72.745 238.44 64.041 229.736C46.635 212.328 46.635 184.004 64.041 166.597C81.45 149.189 109.774 149.191 127.182 166.597C135.615 175.03 140.258 186.241 140.258 198.167C140.258 210.093 135.614 221.304 127.182 229.737C118.477 238.44 107.044 242.792 95.611 242.792V242.792ZM95.611 168.986C88.135 168.986 80.659 171.832 74.968 177.523C63.586 188.905 63.586 207.426 74.968 218.809C86.349 230.192 104.872 230.191 116.254 218.809C121.768 213.295 124.805 205.964 124.805 198.166C124.805 190.368 121.768 183.037 116.254 177.523C110.563 171.832 103.087 168.986 95.611 168.986Z" fill="#544F57"/>
<path id="Vector_14" d="M231.703 125.694C266.356 125.694 294.447 97.6025 294.447 62.95C294.447 28.2974 266.356 0.205994 231.703 0.205994C197.05 0.205994 168.959 28.2974 168.959 62.95C168.959 97.6025 197.05 125.694 231.703 125.694Z" fill="#C3BEC6"/>
<path id="Vector_15" d="M201.501 107.317C211.947 117.763 225.164 123.759 238.793 125.294C220.466 127.375 201.398 121.379 187.336 107.317C162.838 82.819 162.838 43.085 187.336 18.588C201.398 4.52599 220.466 -1.47001 238.793 0.61099C225.164 2.14599 211.947 8.13099 201.501 18.588C176.993 43.085 176.993 82.819 201.501 107.317Z" fill="#B4ACB7"/>
<path id="Vector_16" d="M231.703 83.528C243.068 83.528 252.281 74.3149 252.281 62.95C252.281 51.5851 243.068 42.372 231.703 42.372C220.338 42.372 211.125 51.5851 211.125 62.95C211.125 74.3149 220.338 83.528 231.703 83.528Z" fill="#E27D47"/>
<path id="Vector_17" d="M231.703 91.241C224.455 91.241 217.206 88.482 211.688 82.964C200.654 71.928 200.654 53.972 211.688 42.937C222.724 31.902 240.681 31.9 251.717 42.937C257.062 48.283 260.007 55.39 260.007 62.951C260.007 70.512 257.062 77.619 251.716 82.965H251.717C246.199 88.482 238.951 91.241 231.703 91.241V91.241ZM231.702 50.105C228.411 50.105 225.121 51.358 222.616 53.863C217.606 58.874 217.606 67.027 222.616 72.038C227.627 77.049 235.781 77.047 240.79 72.038H240.791C243.218 69.611 244.555 66.384 244.555 62.951C244.555 59.518 243.218 56.291 240.791 53.864C238.285 51.357 234.994 50.105 231.702 50.105V50.105Z" fill="#B4ACB7"/>
<path id="Vector_18" d="M185.049 349.435H51.861C23.219 349.435 0 372.654 0 401.297V511.793H236.911V401.297C236.911 372.654 213.691 349.435 185.049 349.435V349.435Z" fill="#F9F6F9"/>
<path id="Vector_19" d="M77.921 349.432C49.277 349.432 26.056 372.653 26.056 401.297V511.791H0V401.297C0 372.653 23.221 349.432 51.865 349.432H77.921Z" fill="#E2DFE2"/>
<g id="buttons">
<path id="Vector_20" d="M58.086 435.87C53.283 436.046 48.481 436.046 43.678 435.87C35.304 435.563 28.531 428.79 28.224 420.416C28.048 415.613 28.048 410.81 28.224 406.008C28.531 397.634 35.304 390.861 43.678 390.554C48.381 390.381 53.084 390.378 57.787 390.543C66.39 390.845 73.248 397.704 73.551 406.307C73.716 411.01 73.713 415.713 73.54 420.416C73.233 428.791 66.46 435.563 58.086 435.87V435.87Z" fill="#DA4A54"/>
<path id="Vector_21" d="M126.869 435.87C122.066 436.046 117.264 436.046 112.461 435.87C104.087 435.563 97.314 428.79 97.007 420.416C96.831 415.613 96.831 410.81 97.007 406.008C97.314 397.634 104.087 390.861 112.461 390.554C117.164 390.381 121.867 390.378 126.57 390.543C135.173 390.845 142.031 397.704 142.334 406.307C142.499 411.01 142.496 415.713 142.323 420.416C142.015 428.791 135.243 435.563 126.869 435.87V435.87Z" fill="#FFEF4A"/>
<path id="Vector_22" d="M193.233 435.87C188.43 436.046 183.628 436.046 178.825 435.87C170.451 435.563 163.678 428.79 163.371 420.416C163.195 415.613 163.195 410.81 163.371 406.008C163.678 397.634 170.451 390.861 178.825 390.554C183.528 390.381 188.231 390.378 192.934 390.543C201.537 390.845 208.395 397.704 208.698 406.307C208.863 411.01 208.86 415.713 208.687 420.416C208.379 428.791 201.607 435.563 193.233 435.87V435.87Z" fill="#78D0B1"/>
</g>
</g>
</g>
</svg>
